docs/.gitbook/assets/icon-light-bulb-16@light.svg

<svg width="32" height="32" viewBox="0 0 16 16" fill="none" xmlns="http://www.w3.org/2000/svg">
<rect x="0" y="0" width="16" height="16" fill="#fff"/>
<path fill-rule="evenodd" clip-rule="evenodd" d="M8 2.5C6.067 2.5 4.5 4.067 4.5 6C4.5 6.59676 4.64874 7.15656 4.91055 7.64655C5.08754 7.97781 5.49357 8.61711 5.79858 9.08724C6.07127 9.50754 6.229 9.99494 6.24805 10.5H7.25V6.75C7.25 6.33579 7.58579 6 8 6C8.41421 6 8.75 6.33579 8.75 6.75V10.5H9.75195C9.771 9.99494 9.92873 9.50754 10.2014 9.08724C10.5064 8.61711 10.9125 7.97781 11.0895 7.64655C11.3513 7.15656 11.5 6.59676 11.5 6C11.5 4.067 9.933 2.5 8 2.5ZM9.75 12H8H6.25V12.75C6.25 12.9652 6.32258 13.1559 6.43556 13.283C6.53627 13.3963 6.70352 13.5 7 13.5H9C9.29648 13.5 9.46373 13.3963 9.56444 13.283C9.67742 13.1559 9.75 12.9652 9.75 12.75V12ZM3 6C3 3.23858 5.23858 1 8 1C10.7614 1 13 3.23858 13 6C13 6.84933 12.7876 7.65129 12.4124 8.35345C12.1995 8.75195 11.7555 9.44783 11.4598 9.90365C11.3225 10.1152 11.25 10.3582 11.25 10.6037V11.25V12.75C11.25 13.2848 11.0726 13.8441 10.6856 14.2795C10.2863 14.7287 9.70352 15 9 15H7C6.29648 15 5.71373 14.7287 5.31444 14.2795C4.92742 13.8441 4.75 13.2848 4.75 12.75V11.25V10.6037C4.75 10.3582 4.67745 10.1152 4.54022 9.90365C4.24449 9.44783 3.80048 8.75195 3.58756 8.35345C3.21238 7.65129 3 6.84933 3 6Z" fill="#000"/>
</svg>

<svg xmlns="http://www.w3.org/2000/svg" width="32" height="32" fill="none" viewBox="0 0 16 16"><path fill="#fff" d="M0 0h16v16H0z"/><path fill="#000" fill-rule="evenodd" d="M8 2.5a3.5 3.5 0 0 0-3.09 5.147c.178.33.584.97.889 1.44.272.42.43.908.449 1.413H7.25V6.75a.75.75 0 0 1 1.5 0v3.75h1.002a2.8 2.8 0 0 1 .45-1.413c.304-.47.71-1.11.887-1.44A3.5 3.5 0 0 0 8 2.5M9.75 12h-3.5v.75c0 .215.073.406.186.533.1.113.268.217.564.217h2c.296 0 .464-.104.564-.217a.8.8 0 0 0 .186-.533zM3 6a5 5 0 1 1 9.412 2.353c-.213.399-.657 1.095-.952 1.55-.138.212-.21.455-.21.7v2.147c0 .535-.177 1.094-.564 1.53-.4.449-.982.72-1.686.72H7c-.704 0-1.286-.271-1.686-.72a2.3 2.3 0 0 1-.564-1.53v-2.146c0-.246-.073-.489-.21-.7-.296-.456-.74-1.152-.952-1.55A5 5 0 0 1 3 6" clip-rule="evenodd"/></svg>
